src/resources/assets/document.svg

<svg xmlns="http://www.w3.org/2000/svg" width="16" height="16"><path d="M 5 1 C 3.894531 1 3 1.894531 3 3 L 3 13 C 3 14.105469 3.894531 15 5 15 L 11 15 C 12.105469 15 13 14.105469 13 13 L 13 5.414062 C 13 5.015625 12.84375 4.636719 12.5625 4.355469 L 9.644531 1.4375 C 9.363281 1.15625 8.984375 1 8.585938 1 Z M 4 3 C 4 2.449219 4.449219 2 5 2 L 8 2 L 8 4.5 C 8 5.328125 8.671875 6 9.5 6 L 12 6 L 12 13 C 12 13.550781 11.550781 14 11 14 L 5 14 C 4.449219 14 4 13.550781 4 13 Z M 11.792969 5 L 9.5 5 C 9.222656 5 9 4.777344 9 4.5 L 9 2.207031 Z M 11.792969 5" fill="#ddd"/></svg>

<svg xmlns="http://www.w3.org/2000/svg" width="16" height="16"><path d="M5 1c-1.105 0-2 .895-2 2v10c0 1.105.895 2 2 2h6c1.105 0 2-.895 2-2V5.414c0-.398-.156-.777-.438-1.059L9.646 1.437A1.493 1.493 0 008.585 1zM4 3c0-.55.45-1 1-1h3v2.5A1.5 1.5 0 009.5 6H12v7c0 .55-.45 1-1 1H5c-.55 0-1-.45-1-1zm7.793 2H9.5a.498.498 0 01-.5-.5V2.207zm0 0" fill="#ddd"/></svg>
